!!!COM: Massaino, Tiburzio
!!!CDT:
!!!PTL: Madrigali a sei voci. Libro primo
!!!PPP: Venice
!!!PPR: Angelo Gardano
!!!PDT: 1604
!!!PUB-format:
!!!RISM: M 1294
!!!OTL: Pastor, di che piangete?
!!!AGN: Madrigal
!!!SCT: Tam4021779a
!!!SCA: Tam4021779a
!!!original-voices: 6
!!!extant-voices: 6
!!!complete: Y
!!!final: E
**kern	**text	**kern	**text	**kern	**text	**kern	**text	**kern	**text	**kern	**text
*part6	*part6	*part5	*part5	*part4	*part4	*part3	*part3	*part2	*part2	*part1	*part1
*staff6	*staff6	*staff5	*staff5	*staff4	*staff4	*staff3	*staff3	*staff2	*staff2	*staff1	*staff1
*I"Basso	*	*I"Sesto	*	*I"Tenore	*	*I"Alto	*	*I"Quinto	*	*I"Canto	*
*I'B	*	*I'VI	*	*I'T	*	*I'A	*	*I'V	*	*I'C	*
*oclefF4	*	*oclefC4	*	*oclefC4	*	*oclefC3	*	*oclefC1	*	*oclefC1	*
*clefF4	*	*clefGv2	*	*clefGv2	*	*clefG2	*	*clefG2	*	*clefG2	*
*k[]	*	*k[]	*	*k[]	*	*k[]	*	*k[]	*	*k[]	*
*C:	*	*C:	*	*C:	*	*C:	*	*C:	*	*C:	*
*omet(C)	*	*omet(C)	*	*omet(C)	*	*omet(C)	*	*omet(C)	*	*omet(C)	*
*M4/2	*	*M4/2	*	*M4/2	*	*M4/2	*	*M4/2	*	*M4/2	*
=1	=1	=1	=1	=1	=1	=1	=1	=1	=1	=1	=1
0r	.	0r	.	2e	Pa-	2g#X	Pa-	2b	Pa-	2r	.
.	.	.	.	2.e	-stor,	2.g#i	-stor,	2.b	-stor,	2ee	Pa-
.	.	.	.	.	.	.	.	.	.	2.ee	-stor,
.	.	.	.	4c#X	di	4a	di	2e	di	.	.
.	.	.	.	4c#i	che	4a	che	.	.	.	.
.	.	.	.	4c#i	pian-	4e	pian-	[4ee	che	4a	di
=2	=2	=2	=2	=2	=2	=2	=2	=2	=2	=2	=2
0r	.	0r	.	1e	-ge-	1g	-ge-	4ee]	.	4b	che
.	.	.	.	.	.	.	.	4ee	pian-	4b	pian-
.	.	.	.	.	.	.	.	2b	-ge-	1ee	-ge-
.	.	.	.	1B	-te?	1f#X	-te?	2b	-te?	.	.
.	.	.	.	.	.	.	.	4b	Se	2dd#X	-te?
.	.	.	.	.	.	.	.	4b	pian-	.	.
=3	=3	=3	=3	=3	=3	=3	=3	=3	=3	=3	=3
0r	.	0r	.	4B	Se	4f#i	Se	2dd#X	-ge-	2r	.
.	.	.	.	4B	pian-	4f#i	pian-	.	.	.	.
.	.	.	.	1B	-ge-	2f#i	-ge-	2dd#i	-te	4b	Se
.	.	.	.	.	.	.	.	.	.	4b	pian-
.	.	.	.	.	.	2.g#X	-te il	2r	.	2dd#X	-ge-
.	.	.	.	2c#X	-te il	.	.	4r	.	[2ee	-te il
.	.	.	.	.	.	4a	mio af-	[4a	il	.	.
=4	=4	=4	=4	=4	=4	=4	=4	=4	=4	=4	=4
0r	.	0r	.	2d	mio af-	2.f	-fan-	4a]	.	2ee]	.
.	.	.	.	.	.	.	.	4a	mio af-	.	.
.	.	.	.	1f	-fan-	.	.	2a	-fan-	2dd	mio af-
.	.	.	.	.	.	8gL	.	.	.	.	.
.	.	.	.	.	.	8aJ	.	.	.	.	.
.	.	.	.	.	.	4g#X	.	1b	-no,	1ee	-fan-
.	.	.	.	.	.	2a	.	.	.	.	.
.	.	.	.	2e	-no,	.	.	.	.	.	.
.	.	.	.	.	.	4g#i	.	.	.	.	.
=5	=5	=5	=5	=5	=5	=5	=5	=5	=5	=5	=5
2r	.	4A	Io	0r	.	2a	-no,	4cc	Io	2ee	-no,
.	.	4A	non	.	.	.	.	4cc	non	.	.
4E	Io	1e	mer-	.	.	2r	.	2g#X	mer-	4b	Io
4E	non	.	.	.	.	.	.	.	.	4b	non
2AA	mer-	.	.	.	.	4A	Io	4a	-to	2cc	mer-
.	.	.	.	.	.	4A	non	4a	pie-	.	.
4D	-to	4d	-to	.	.	2A	mer-	2f	-ta-	4a	-to
4D	pie-	4d	pie-	.	.	.	.	.	.	4a	pie-
=6	=6	=6	=6	=6	=6	=6	=6	=6	=6	=6	=6
0BB-X	-ta-	2D	-ta-	2r	.	4d	-to	[2f	-te,	2b-X	-ta-
.	.	.	.	.	.	4d	pie-	.	.	.	.
.	.	[2D	-te,	8r	.	1B-X	-ta-	8f]	.	[2f	-te,
.	.	.	.	8d	Ché	.	.	8ff	Ché	.	.
.	.	.	.	8d	non	.	.	8ff	non	.	.
.	.	.	.	8c	la	.	.	8ee	la	.	.
.	.	8D]	.	4B-X	sep-	.	.	2dd	sep-	8f]	.
.	.	8d	Ché	.	.	.	.	.	.	8ff	Ché
.	.	8d	non	4F	-pi u-	.	.	.	.	8ff	non
.	.	8c	la	.	.	.	.	.	.	8ee	la
.	.	4B-X	sep-	2F	-sa-	[2f	-te,	2dd	-pi u-	4dd	sep-
.	.	4F	-pi u-	.	.	.	.	.	.	4b-X	-pi u-
=7	=7	=7	=7	=7	=7	=7	=7	=7	=7	=7	=7
[2FF	-te,	4.A	-sa-	0F	-re,	8f]	.	2cc	-sa-	2a	-sa-
.	.	.	.	.	.	8d	Ché	.	.	.	.
.	.	.	.	.	.	8d	non	.	.	.	.
.	.	8B	.	.	.	8c	la	.	.	.	.
8FF]	.	2c	.	.	.	2A	sep-	8cc	-re,	2a	-re,
8F	Ché	.	.	.	.	.	.	8a	Ché	.	.
8F	non	.	.	.	.	.	.	8a	non	.	.
8E	la	.	.	.	.	.	.	8g	la	.	.
2D	sep-	8d	-re,	.	.	8A	-pi,	4f	sep-	8r	.
.	.	8f	Ché	.	.	8a	Ché	.	.	8dd	Ché
.	.	8f	non	.	.	8a	non	4d	-pi,	8dd	non
.	.	8e	la	.	.	8g	la	.	.	8cc	la
2D	-pi u-	4d	sep-	.	.	4.f	sep-	8r	.	4b	sep-
.	.	.	.	.	.	.	.	8dd	Ché	.	.
.	.	4d	-pi,	.	.	.	.	8dd	non	4a	-pi,
.	.	.	.	.	.	8a	-pi u-	8cc	la	.	.
=8	=8	=8	=8	=8	=8	=8	=8	=8	=8	=8	=8
0E	-sa-	0r	.	4r	.	4g	-sa-	8b	sep-	8r	.
.	.	.	.	.	.	.	.	8b	-pi u-	8ee	Ché
.	.	.	.	8r	.	4f	.	8aL	-sa-	8ee	non
.	.	.	.	8B	Ché	.	.	8bJ	.	8dd	la
.	.	.	.	8B	non	2e	.	8gL	.	8cc	sep-
.	.	.	.	8A	la	.	.	8aJ	.	8cc	-pi u-
.	.	.	.	2G#X	sep-	.	.	8bJL	-re,	4.b	-sa-
.	.	.	.	.	.	.	.	8ee	<Ché	.	.
.	.	.	.	.	.	[1e	-re,	8ee	non	.	.
.	.	.	.	.	.	.	.	8dd	la	8a	.
.	.	.	.	4A	-pi u-	.	.	8cc	sep-	2a	.
.	.	.	.	.	.	.	.	8cc	-pi u-	.	.
.	.	.	.	2B	-sa-	.	.	2b	-sa-	.	.
.	.	.	.	.	.	.	.	.	.	4g#X	.
=9	=9	=9	=9	=9	=9	=9	=9	=9	=9	=9	=9
1AA	-re;	1r	.	2A	-re,	1e]	.	2cc#X	-re,>	1a	-re,
.	.	.	.	4A	Io	.	.	4cc#i	Io	.	.
.	.	.	.	4A	non	.	.	4cc#i	non	.	.
1r	.	4A	Io	2D	mer-	4f#X	Io	2dd	mer-	2r	.
.	.	4A	non	.	.	4f#i	non	.	.	.	.
.	.	2B	mer-	4G	-to	2g	mer-	2b	-to	4dd	Io
.	.	.	.	4G	pie-	.	.	.	.	4dd	non
=10	=10	=10	=10	=10	=10	=10	=10	=10	=10	=10	=10
0r	.	2e	-to	0E	-ta-	2g	-to	2cc#X	pie-	2ee	mer-
.	.	2d	pie-	.	.	2a	pie-	1dd	-ta-	4ff	-to
.	.	.	.	.	.	.	.	.	.	4ff	pie-
.	.	1e	-ta-	.	.	1g	-ta-	.	.	2ee	-ta-
.	.	.	.	.	.	.	.	2cc#X	-te,	2ee	-te,
=11	=11	=11	=11	=11	=11	=11	=11	=11	=11	=11	=11
0r	.	2A	-te;	[2D	-te	8f#X	-te	8r	.	2r	.
.	.	.	.	.	.	8a	Ché	8ff	Ché	.	.
.	.	.	.	.	.	8a	non	8ff	non	.	.
.	.	.	.	.	.	8g	la	8ee	la	.	.
.	.	2r	.	8D]	.	2fnXi	sep-	4dd	sep-	8r	.
.	.	.	.	8d	Ché	.	.	.	.	8ff	Ché
.	.	.	.	8d	non	.	.	4a	-pi u-	8ff	non
.	.	.	.	8c	la	.	.	.	.	8ee	la
.	.	1r	.	1B-X	sep-	8f	-pi,	4b-X	-sa-	4dd	sep-
.	.	.	.	.	.	8f	Ché	.	.	.	.
.	.	.	.	.	.	8f	non	4a	.	4cc	-pi u-
.	.	.	.	.	.	8e	la	.	.	.	.
.	.	.	.	.	.	4d	sep-	4f	.	2b-X	-sa-
.	.	.	.	.	.	4d	-pi u-	4g	.	.	.
=12	=12	=12	=12	=12	=12	=12	=12	=12	=12	=12	=12
0r	.	0r	.	2F	-pi u-	4c	-sa-	8a	-re,	8a	-re,
.	.	.	.	.	.	.	.	8cc	Ché	8ff	Ché
.	.	.	.	.	.	4A	-re,	8cc	non	8ff	non
.	.	.	.	.	.	.	.	8b	la	8ee	la
.	.	.	.	2F#X	.	4r	.	4a	sep-	2dd	sep-
.	.	.	.	.	.	8r	.	4d	-pi	.	.
.	.	.	.	.	.	8a	<Ché	.	.	.	.
.	.	.	.	1A	-sa-	8a	non	4r	.	4cc#X	-pi u-
.	.	.	.	.	.	8g	la	.	.	.	.
.	.	.	.	.	.	8f	sep-	4a	u-	2dd	-sa-
.	.	.	.	.	.	8f	-pi u-	.	.	.	.
.	.	.	.	.	.	2e	-sa-	2a	-sa-	.	.
.	.	.	.	.	.	.	.	.	.	4cc#i	.
=13	=13	=13	=13	=13	=13	=13	=13	=13	=13	=13	=13
1r	.	4A	Se	1D	-re;	1d	-re;>	1a	-re;	1dd	-re;
.	.	4A	pian-	.	.	.	.	.	.	.	.
.	.	1A	-ge-	.	.	.	.	.	.	.	.
4BB	Se	.	.	1r	.	4d#X	Se	4b	Se	1r	.
4BB	pian-	.	.	.	.	4d#i	pian-	4b	pian-	.	.
[2BB	-ge-	4G#X	-te il	.	.	2d#i	-ge-	[2b	-ge-	.	.
.	.	4G#i	mo-	.	.	.	.	.	.	.	.
=14	=14	=14	=14	=14	=14	=14	=14	=14	=14	=14	=14
2BB]	.	2G#i	-ri-	0r	.	2.e	-te il	2b]	.	0r	.
2.C	-te il	2A	.	.	.	.	.	4a	-te il	.	.
.	.	.	.	.	.	4e	mo-	4a	mo-	.	.
.	.	1B	-re	.	.	2d#X	-ri-	2g	-ri-	.	.
4BB	mo-	.	.	.	.	.	.	.	.	.	.
4BB	-ri-	.	.	.	.	2d#i	-re	2f#X	-re	.	.
4BB	-re	.	.	.	.	.	.	.	.	.	.
=15	=15	=15	=15	=15	=15	=15	=15	=15	=15	=15	=15
4r	.	0r	.	4r	.	4r	.	0r	.	4r	.
4AA	Del	.	.	4E	Del	4e	Del	.	.	4cc	Del
4.AA	mi-	.	.	4.F	mi-	4.A	mi-	.	.	4.cc	mi-
8AA	-se-	.	.	8F	-se-	8A	-se-	.	.	8cc	-se-
4AA	-ro in-	.	.	4E	-ro in-	4A	-ro in-	.	.	4cc	-ro in-
4GG#X	-no-	.	.	4E	-no-	4e	-no-	.	.	4b	-no-
2AA	-cen-	.	.	2c	-cen-	4e	-cen-	.	.	[2a	-cen-
.	.	.	.	.	.	4f	.	.	.	.	.
=16	=16	=16	=16	=16	=16	=16	=16	=16	=16	=16	=16
1BB	-te,	1r	.	1B	-te,	1d#X	-te,	1r	.	2a]	.
.	.	.	.	.	.	.	.	.	.	2g#X	-te,
1r	.	8B	Que-	1r	.	8d#i	Que-	4r	.	1r	.
.	.	8B	-sto è	.	.	8d#i	-sto è	.	.	.	.
.	.	2c	pic-	.	.	2e	pic-	8g	Que-	.	.
.	.	.	.	.	.	.	.	8g	-sto è	.	.
.	.	.	.	.	.	.	.	4a	pic-	.	.
.	.	8d	-cio-	.	.	4f#X	-cio-	[8b	-cio-	.	.
.	.	8d	-lo	.	.	.	.	8b]	-lo	.	.
=17	=17	=17	=17	=17	=17	=17	=17	=17	=17	=17	=17
1r	.	2e	se-	1r	.	4g#X	-lo	2cc	se-	1r	.
.	.	.	.	.	.	2a	se-	.	.	.	.
.	.	2e	-gno.	.	.	.	.	2b	-gno.	.	.
.	.	.	.	.	.	4g#X	-gno.	.	.	.	.
8E	A	1r	.	8G	A	1r	.	1r	.	2r	.
8E	sì	.	.	8G	sì	.	.	.	.	.	.
2F	al-	.	.	2A	al-	.	.	.	.	.	.
.	.	.	.	.	.	.	.	.	.	8cc	A
.	.	.	.	.	.	.	.	.	.	8cc	sì
8E	-ta	.	.	8G#X	-ta	.	.	.	.	[4dd	al-
8D	ca-	.	.	8F#X	ca-	.	.	.	.	.	.
=18	=18	=18	=18	=18	=18	=18	=18	=18	=18	=18	=18
0E	-gio-	8B	A	2G#X	-gio-	0r	.	1r	.	4dd]	.
.	.	8B	sì	.	.	.	.	.	.	.	.
.	.	2c	al-	.	.	.	.	.	.	8cc	-ta
.	.	.	.	.	.	.	.	.	.	8b	ca-
.	.	.	.	1A	.	.	.	.	.	2cc	-gio-
.	.	8B	-ta	.	.	.	.	.	.	.	.
.	.	8A	ca-	.	.	.	.	.	.	.	.
.	.	1B	-gio-	.	.	.	.	2r	.	1b	-ne.
.	.	.	.	2G#i	.	.	.	4r	.	.	.
.	.	.	.	.	.	.	.	[4ee	E	.	.
=19	=19	=19	=19	=19	=19	=19	=19	=19	=19	=19	=19
2AA	-ne.	2A	-ne.	1A	-ne.	2a	E	4ee]	.	2r	.
.	.	.	.	.	.	.	.	2a	tu	.	.
2A	E	2c	E	.	.	2e	tu	.	.	4r	.
.	.	.	.	.	.	.	.	4a	ra-	2ee	E
2E	tu	2B	tu	1r	.	4g	ra-	4b	-sciu-	.	.
.	.	.	.	.	.	2g	-sciu-	4ee	-ga,	2b	tu
4BB	ra-	4B	ra-	.	.	.	.	[2dd	Daf-	.	.
4BB	-sciu-	4B	-sciu-	.	.	4f#X	-ga,	.	.	4b	ra-
=20	=20	=20	=20	=20	=20	=20	=20	=20	=20	=20	=20
4BB	-ga,	4d	-ga,	4r	.	2f#i	Daf-	2dd]	.	4b	-sciu-
2D	Daf-	2A	Daf-	4d	Ra-	.	.	.	.	4a	-ga,
.	.	.	.	4d	-sciu-	2f#i	-ne,	2dd	-ne,	2a	Daf-
4D	-ne,	4A	-ne,	4d	-ga,	.	.	.	.	.	.
2AA	que-	2c	que-	2e	Daf-	1r	.	2cc	que-	4a	-ne,
.	.	.	.	.	.	.	.	.	.	4ee	que-
4GG#X	-ste	4B	-ste	2e	-ne,	.	.	4ee	-ste	4ee	-ste
4GG#i	tue	4B	tue	.	.	.	.	4ee	tue	4b	tue
=21	=21	=21	=21	=21	=21	=21	=21	=21	=21	=21	=21
2.BB	la-	2.B	la-	0r	.	4f#X	que-	2.dd#X	la-	1b	la-
.	.	.	.	.	.	4f#i	-ste	.	.	.	.
.	.	.	.	.	.	4f#i	tue	.	.	.	.
4BB	-gri-	4B	-gri-	.	.	2g	la-	4dd#i	-gri-	.	.
1BB	-me,	1B	-me,	.	.	.	.	2dd#i	-me,	2b	-gri-
.	.	.	.	.	.	4f#X	-gri-	.	.	.	.
.	.	.	.	.	.	2f#i	-me,	2r	.	2dd#X	-me,
=22	=22	=22	=22	=22	=22	=22	=22	=22	=22	=22	=22
0r	.	0r	.	4B	ra-	4f#i	ra-	4b	ra-	4dd#i	ra-
.	.	.	.	4B	-sciu-	4f#i	-sciu-	4b	-sciu-	4dd#i	-sciu-
.	.	.	.	4B	-ga,	4f#i	-ga,	4b	-ga,	4dd#i	-ga,
.	.	.	.	2e	Daf-	2g#X	Daf-	2b	Daf-	2ee	Daf-
.	.	.	.	2A	-ne,	4a	-ne,	2cc#X	-ne,	2ee	-ne,
.	.	.	.	.	.	2e	que-	.	.	.	.
.	.	.	.	[4G#X	que-	.	.	[4ee	que-	[4b	que-
=23	=23	=23	=23	=23	=23	=23	=23	=23	=23	=23	=23
0r	.	0r	.	4G#]	.	2e	-ste	4ee]	.	4b]	.
.	.	.	.	8G#i	-ste	.	.	8ee	-ste	8b	-ste
.	.	.	.	8G#i	tue	.	.	8ee	tue	8b	tue
.	.	.	.	2.A	la-	4e	tue	2.ee	la-	2.cc#X	la-
.	.	.	.	.	.	2a	la-	.	.	.	.
.	.	.	.	4D	-gri-	4a	-gri-	4dd	-gri-	4f#X	-gri-
.	.	.	.	2D	-me,	2a	-me,	2dd	-me,	2f#i	-me,
=24	=24	=24	=24	=24	=24	=24	=24	=24	=24	=24	=24
2r	.	4A	Se	0r	.	4e	Se	4cc	Se	1r	.
.	.	4A	ca-	.	.	4e	ca-	4cc	ca-	.	.
4BB	Se	4d	-gion	.	.	2f#X	-gion	2b	-gion,	.	.
4BB	ca-	2d	ne	.	.	.	.	.	.	.	.
4E	-gion	.	.	.	.	2.g	ne	1r	.	2r	.
2E	ne	4c	son	.	.	.	.	.	.	.	.
.	.	4B	i-	.	.	.	.	.	.	4b	Se
4D	son	4B	-o,	.	.	4f#i	son	.	.	4b	ca-
=25	=25	=25	=25	=25	=25	=25	=25	=25	=25	=25	=25
0C	i-	4E	<Se	0r	.	1e	i-	4g	Se	4ee	-gion
.	.	4E	ca-	.	.	.	.	4g	ca-	2ee	ne
.	.	4A	-gion	.	.	.	.	4cc	-gion	.	.
.	.	2A	ne	.	.	.	.	8dd	ne	4dd	son
.	.	.	.	.	.	.	.	8dd	son	.	.
.	.	.	.	.	.	1e	-o,	2ee	i-	4cc	i-
.	.	4G	son	.	.	.	.	.	.	2b	.
.	.	2A	i-	.	.	.	.	4ee	-o,	.	.
.	.	.	.	.	.	.	.	8e	<Se	4a	.
.	.	.	.	.	.	.	.	8e	ca-	.	.
=26	=26	=26	=26	=26	=26	=26	=26	=26	=26	=26	=26
2BB	-o,	2D	-o,>	2r	.	1r	.	4f#X	-gion	1b	-o,
.	.	.	.	.	.	.	.	2g#X	ne	.	.
2r	.	4r	.	4E	Se	.	.	.	.	.	.
.	.	8B	Se	4E	ca-	.	.	4g#i	son	.	.
.	.	8B	ca-	.	.	.	.	.	.	.	.
1r	.	4c	-gion	4A	-gion	2r	.	2a	i-	1r	.
.	.	2c	ne	2A	ne	.	.	.	.	.	.
.	.	.	.	.	.	(4e	Se	4a	-o,	.	.
.	.	4B	son	4G	son	4e)	ca-	8b	Se	.	.
.	.	.	.	.	.	.	.	8b	ca-	.	.
=27	=27	=27	=27	=27	=27	=27	=27	=27	=27	=27	=27
0r	.	2.A	i-	0F	i-	4a	-gion	4cc	-gion	1r	.
.	.	.	.	.	.	2a	ne	2cc	ne	.	.
.	.	4B	.	.	.	4g	son	4b	son	.	.
.	.	2.c	.	.	.	4f	i-	1a	i-	1r	.
.	.	.	.	.	.	2e	.	.	.	.	.
.	.	8BL	.	.	.	4d	.	.	.	.	.
.	.	8AJ	.	.	.	.	.	.	.	.	.
=28	=28	=28	=28	=28	=28	=28	=28	=28	=28	=28	=28
2r	.	2B	-o,	1E	-o,	1e	-o,	(2g#X	-o,>	4b	<Se
.	.	.	.	.	.	.	.	.	.	4b	ca-
4C	Se	4E	Se	.	.	.	.	2g#)	.	4ee	-gion
4C	ca-	4E	ca-	.	.	.	.	.	.	2ee	ne
4F	-gion	4A	-gion	1r	.	2r	.	1r	.	.	.
2F	ne	2A	ne	.	.	.	.	.	.	4dd	son
.	.	.	.	.	.	4c	<Se	.	.	2ee	i-
4E	son	4G	son	.	.	4c	ca-	.	.	.	.
=29	=29	=29	=29	=29	=29	=29	=29	=29	=29	=29	=29
0D	i-	0F	i-	2r	.	4f	-gion	4r	.	1a	-o,>
.	.	.	.	.	.	2f	ne	8a	Se	.	.
.	.	.	.	.	.	.	.	8a	ca-	.	.
.	.	.	.	4A	Se	.	.	2dd	-gion,	.	.
.	.	.	.	4A	ca-	4e	son	.	.	.	.
.	.	.	.	4d	-gion	4d	i-	2r	.	4r	.
.	.	.	.	2d	ne	4A	-o,>	.	.	8a	Se
.	.	.	.	.	.	.	.	.	.	8a	ca-
.	.	.	.	.	.	4r	.	4a	<Se	2dd	-gion
.	.	.	.	4A	son	8d	Se	4a	ca-	.	.
.	.	.	.	.	.	8d	ca-	.	.	.	.
=30	=30	=30	=30	=30	=30	=30	=30	=30	=30	=30	=30
[0E	.	[0El	-o.	2c	i-	4g	-gion	4ee	-gion>	2r	.
.	.	.	.	.	.	2g	ne	2ee	ne	.	.
.	.	.	.	4B	.	.	.	.	.	4b	<Se
.	.	.	.	4A	.	4f	son	4dd	son	4b	ca-
.	.	.	.	[1G	.	[1e	i-	2cc	i-	4ee	-gion>
.	.	.	.	.	.	.	.	.	.	2ee	ne
.	.	.	.	.	.	.	.	[2b	.	.	.
.	.	.	.	.	.	.	.	.	.	4dd	son
=31	=31	=31	=31	=31	=31	=31	=31	=31	=31	=31	=31
1E]	.	1E_	.	2G]	.	1e]	.	2b]	.	1cc	i-
.	.	.	.	2A	.	.	.	2a	.	.	.
00EEl	-o.	00E]	.	00Bl	-o.	00el	-o.	00g#Xl	-o.	00bl	-o.
==	==	==	==	==	==	==	==	==	==	==	==
*-	*-	*-	*-	*-	*-	*-	*-	*-	*-	*-	*-
!!!system-decoration: [*]
!!!RDF**kern: i = editorial accidental
!!!RDF**kern: l = terminal long
!!!ENC: Emiliano Ricciardi
!!!END: 2019/01/08
!!!EED: Coluzzi, Seth
!!!EEV: 2019/01/21
!!!YEC: Copyright 2018 Emiliano Ricciardi, All Rights Reserved
!!!ONB: Translated from MusicXML on 2019/01/21
!!@@BEGIN:	VERSEDATA
!!@CATALOGNUM:	Tam4021779
!!@LAST_MODIFIED: 2020/07/12
!!@ACT:         IV
!!@SCENE:       2
!!@VERSE:       1779
!!@TITLE:        Pastor, di che piangete?
!!@MANUSRC:	A-Am, A-Au, A-Br, A-CM, A-F, A-Ub
!!@PRINTSRC:	A-1580D, A-1580M, A-1581B, A-1581B<sub>bis</sub>, A-1581M, A-1581M<sub>bis</sub>, A-1581O, A-1581V, A-1582B, A-1583M, A-1583V, A-1584A, A-1585C, A-1585V, A-1585V<sub>bis</sub>, A-1588B, A-1589M, A-1589V, A-1590Mb, A-1590Mv, A-1591M, A-1591W, A-1592B, A-1596B, A-1596M, A-1599Bf, A-1599Bp, A-1600R, A-1601Bf, A-1601Bp, A-1602B, A-1603Bf, A-1603Bv, A-1603Z, A-1605R, A-1606Z, A-1608D, A-1608DP, A-1609Bf, A-1609Bv, A-1609Z, A-1611D, A-1614GT, A-1617D, A-1618B, A-1619D, A-1619I, A-1620V, A-1622D, A-1623A, A-1624M, A-1624S, A-1624T, A-1625U, A-1628U, A-1632D, A-1634R
!!@@BEGIN:	VERSES
!!@ABOUTIT:	
!!@ABOUTEN:	
!!@EDITOR:	Solerti, Angelo
!!@EDITION_TITLE: Opere minori in versi di Torquato Tasso. Edizione critica sugli autografi e sulle antiche stampe.
!!@EDITION_LOC:	Bologna
!!@EDITION_PUB:	Zanichelli
!!@EDITION_DATE:  1895
!!@EDITION_VOL:	3
!!@EDITION_PAGE:
!!@TRANSLATOR:	Emiliano Ricciardi and Amyrose McCue Gill
!!@VERSE:	
!!	SILVIA: Pastor, di che piangete?
!!	Se piangete il mio affanno,
!!	O non merto pietate,
!!	Ché non la seppi usare.
!!	Se piangete il morire
!!	Del misero innocente,
!!	Questo è picciolo segno
!!	A sì alta cagione. E tu rasciuga,
!!	Dafne, queste tue lagrime, per Dio,
!!	Se cagion ne son io.
!!	Ben ti voglio pregare,
!!	Non per pietà di me, ma per pietade
!!	Di chi degno ne fue,
!!	Che m'aiuti a cercare
!!	L'infelice sue membra, e a sepellirle.
!!	Questo sol mi ritiene
!!	Ch'or hora non m'uccida:
!!	Pagar vuo' questo ufficio,
!!	Poi ch'altro non m'avanza,
!!	A l'amor ch'ei portommi:
!!	E se bene quest'empia
!!	Mano contaminare
!!	Potesse la pietà de l'opra, pure
!!	So che gli sarà cara
!!	L'opra di questa mano;
!!	Ch'io so certo ch'ei m'ama,
!!	Come mostrò morendo.
!!@TVERSE:
!!	SILVIA: Shepherd, about what are you weeping?
!!	If you weep for my grief,
!!	Oh, I do not deserve compassion,
!!	Because I did not know to use it.
!!	If you weep for the death
!!	Of the unhappy innocent,
!!	This is a small gesture
!!	For such an elevated cause. And you,
!!	Daphne, dry these your tears, by God,
!!	If I am the cause of them.
!!	Well I wish to pray you,
!!	Not out of pity for me, but out of compassion
!!	For he who was deserving,
!!	That you help me seek
!!	His unhappy limbs and bury them.
!!	This alone holds me back
!!	[So] that I do not kill myself immediately:
!!	I want to discharge this obligation,
!!	Because nothing else is left to me,
!!	To the love that he bore me:
!!	And if indeed this impious
!!	Hand could corrupt
!!	The piety of the deed, still
!!	I know that it will be dear to him,
!!	The deed of this hand;
!!	For I am sure that he loves me,
!!	As he showed by dying.
!!@@END:		VERSES
!!@NEW_CRIT_ED:   Torquato Tasso, <i>Aminta. "Princeps."</i>, ed. Matteo Navone, vol. 9 of Commissione Nazionale per l'Edizione delle opere del Tasso. Studi e Testi (Alessandria: Edizioni dell'Orso, 2014).
!!@ATTRIBUTION_ABOUT:	
!!@DATING:	1573
!!@DEDICATEE:	
!!@COMMENTARY:
!!@@END:		VERSEDATA
!!@@BEGIN: SETTING
!!@CATALOGNUM:	Tam4021779a
!!@ACT:		IV
!!@SCENE:		2
!!@VERSE:		1779
!!@TITLE:	Pastor, di che piangete?
!!@COMPOSER:	Massaino, Tiburzio
!!@PRINCEPSTITLE:	Madrigali a sei voci. Libro primo
!!@PRINCEPSLOC:	Venice
!!@NORMLOC:	Venice
!!@NORMPUB:	Angelo Gardano
!!@NORMPUBSHORT:	Gardano
!!@PRINCEPSPUB:	Angelo Gardano
!!@PRINCEPSYEAR:	1604
!!@PRINCEPSRISM:	M 1294
!!@OVOICES:	6
!!@EXTANTVOICES:	6
!!@OMENSURATION:	C
!!@OCLEFS:	C1,C1,C3,C4,C4,F4
!!@OTIME:		
!!@OKEYSIG:	-
!!@FINAL:		E
!!@TIMPEDITOR:	Coluzzi, Seth
!!@PARTS:		1 of 1
!!@REPRINTS:	
!!@@END: SETTING
